X: 16293
T: Grind Hans Jässpôdspolska
R: slip jig
M: 9/8
K: Gmajor
|:"G"D3 G3 "Bm"A2 B|"C" c2 B- B G2 E3-|"Am" E2 c-c2 B A2 G|"D" FGA- A F2 D3-|
"G"D3 G3 "Bm"A2 B|"C" c2 B- B G2 E3-|"Am" E2 c-c2 B A2 G|"C/D" FEF G6:|
|:"G" G2 B d2 c "Bm"B2 A|"C"Gce-e2 d c2 B|"Am" A2 B (4cdcA B2 G|"D" FGA- A F2 D3-|
"Bm" D2 d- d2 c B2 A|"C"Gce- e2 d c2 B|"Am" A2 B (4cdcA B2 G|"C/D" FEF G6:|

